;FLAVOR:Marlin
;TIME:16890
;Filament used: 11.9279m
;Layer height: 0.2
;MINX:36.5
;MINY:32.9
;MINZ:0.2
;MAXX:198.5
;MAXY:202.1
;MAXZ:14
;Generated with Cura_SteamEngine 4.9.1
M140 S50
M105
M190 S50
M104 S200
M105
M109 S200
M82 ;absolute extrusion mode
; Ender 3 Custom Start G-code
G92 E0 ; Reset Extruder
G28 ; Home all axes
G1 Z2.0 F3000 ; Move Z Axis up little to prevent scratching of Heat Bed
G1 X0.1 Y20 Z0.3 F5000.0 ; Move to start position
G1 X0.1 Y200.0 Z0.3 F1500.0 E15 ; Draw the first line
G1 X0.4 Y200.0 Z0.3 F5000.0 ; Move to side a little
G1 X0.4 Y20 Z0.3 F1500.0 E30 ; Draw the second line
G92 E0 ; Reset Extruder
G1 Z2.0 F3000 ; Move Z Axis up little to prevent scratching of Heat Bed
G1 X5 Y20 Z0.3 F5000.0 ; Move over to prevent blob squish
G92 E0
G92 E0
G1 F2700 E-5
;LAYER_COUNT:70
;LAYER:0
M107
G0 F6000 X55.307 Y37.589 Z0.2
;TYPE:SKIRT
G1 F2700 E0
G1 F1200 X55.878 Y36.845 E0.03119
G1 X56.51 Y36.152 E0.06239
G1 X57.199 Y35.516 E0.09358
G1 X57.94 Y34.941 E0.12477
G1 X58.727 Y34.431 E0.15596
G1 X59.555 Y33.99 E0.18716
G1 X60.417 Y33.621 E0.21835
G1 X61.308 Y33.327 E0.24956
G1 X62.22 Y33.109 E0.28074
G1 X63.147 Y32.971 E0.31192
G1 X64.001 Y32.913 E0.34039
G1 X64.321 Y32.904 E0.35103
G1 X64.63 Y32.9 E0.36131
G1 X169.993 Y32.9 E3.8657
G1 X170.849 Y32.911 E3.89417
G1 X171.785 Y32.965 E3.92536
G1 X172.713 Y33.097 E3.95653
G1 X173.627 Y33.309 E3.98774
G1 X174.519 Y33.598 E4.01893
G1 X175.384 Y33.961 E4.05013
G1 X176.214 Y34.397 E4.08131
G1 X177.005 Y34.902 E4.11252
G1 X177.749 Y35.473 E4.14372
G1 X178.442 Y36.105 E4.17491
G1 X179.079 Y36.793 E4.2061
G1 X179.654 Y37.534 E4.23729
G1 X180.165 Y38.32 E4.26847
G1 X180.607 Y39.148 E4.29969
G1 X180.976 Y40.01 E4.33088
G1 X181.271 Y40.9 E4.36206
G1 X181.489 Y41.812 E4.39325
G1 X181.629 Y42.74 E4.42446
G1 X181.687 Y43.601 E4.45317
G1 X181.696 Y43.921 E4.46381
G1 X181.7 Y44.23 E4.47409
G1 X181.7 Y61.105 E5.03536
G1 X181.737 Y63.713 E5.12211
G1 X181.844 Y66.234 E5.20603
G1 X182.021 Y68.729 E5.28922
G1 X182.269 Y71.229 E5.37278
G1 X182.588 Y73.722 E5.45638
G1 X182.979 Y76.215 E5.54031
G1 X183.442 Y78.705 E5.62455
G1 X183.972 Y81.169 E5.70837
G1 X184.561 Y83.571 E5.79063
G1 X185.237 Y86.027 E5.87536
G1 X185.975 Y88.437 E5.95919
G1 X186.782 Y90.829 E6.04315
G1 X187.645 Y93.169 E6.1261
G1 X188.591 Y95.525 E6.21054
G1 X189.591 Y97.823 E6.2939
G1 X190.66 Y100.104 E6.37768
G1 X191.803 Y102.374 E6.46222
G1 X192.985 Y104.562 E6.54493
G1 X194.236 Y106.73 E6.62818
G1 X195.981 Y109.543 E6.73828
G1 X196.38 Y110.197 E6.76376
G1 X196.834 Y111.018 E6.79497
G1 X197.128 Y111.657 E6.81836
G1 X197.16 Y111.733 E6.8211
G1 X197.351 Y112.218 E6.83844
G1 X197.51 Y112.652 E6.85381
G1 X197.62 Y112.969 E6.86497
G1 X197.804 Y113.523 E6.88439
G1 X198.062 Y114.425 E6.91559
G1 X198.277 Y115.6 E6.95532
G1 X198.344 Y116.126 E6.97296
G1 X198.38 Y116.448 E6.98374
G1 X198.44 Y117.063 E7.00429
G1 X198.491 Y117.991 E7.0352
G1 X198.5 Y118.76 E7.06078
G1 X198.499 Y170.549 E8.78329
G1 X198.489 Y171.254 E8.80674
G1 X198.48 Y171.557 E8.81682
G1 X198.443 Y172.432 E8.84595
G1 X198.397 Y173.252 E8.87327
G1 X198.336 Y174.119 E8.90217
G1 X198.234 Y175.025 E8.9325
G1 X198.102 Y175.868 E8.96088
G1 X197.931 Y176.871 E8.99472
G1 X197.806 Y177.548 E9.01762
G1 X197.599 Y178.453 E9.04849
G1 X197.378 Y179.259 E9.07629
G1 X197.12 Y180.151 E9.10717
G1 X196.881 Y180.936 E9.13447
G1 X196.574 Y181.811 E9.16531
G1 X196.282 Y182.538 E9.19137
G1 X195.894 Y183.47 E9.22494
G1 X195.586 Y184.181 E9.25072
G1 X195.187 Y185.005 E9.28117
G1 X194.826 Y185.677 E9.30654
G1 X194.308 Y186.615 E9.34218
G1 X193.971 Y187.204 E9.36475
G1 X193.473 Y187.994 E9.39581
G1 X193.029 Y188.636 E9.42177
G1 X192.507 Y189.373 E9.45181
G1 X191.993 Y190.075 E9.48075
G1 X191.443 Y190.766 E9.51012
G1 X191.001 Y191.277 E9.53259
G1 X190.342 Y192.015 E9.5655
G1 X189.708 Y192.705 E9.59667
G1 X189.072 Y193.341 E9.62658
G1 X188.504 Y193.863 E9.65224
G1 X187.705 Y194.576 E9.68786
G1 X187.158 Y195.05 E9.71193
G1 X186.442 Y195.62 E9.74237
G1 X185.785 Y196.098 E9.76939
G1 X184.998 Y196.655 E9.80146
G1 X184.362 Y197.093 E9.82715
G1 X183.579 Y197.586 E9.85792
G1 X183.017 Y197.907 E9.87945
G1 X181.946 Y198.498 E9.92013
G1 X181.322 Y198.83 E9.94364
G1 X180.506 Y199.222 E9.97375
G1 X179.763 Y199.541 E10.00064
G1 X178.863 Y199.912 E10.03302
G1 X178.177 Y200.186 E10.05759
G1 X177.283 Y200.499 E10.0891
G1 X176.452 Y200.75 E10.11797
G1 X175.55 Y201.008 E10.14917
G1 X174.849 Y201.199 E10.17334
G1 X174.317 Y201.33 E10.19156
G1 X173.903 Y201.415 E10.20562
G1 X173.102 Y201.561 E10.2327
G1 X172.115 Y201.727 E10.26599
G1 X171.432 Y201.833 E10.28897
G1 X170.536 Y201.935 E10.31897
G1 X169.681 Y201.995 E10.34748
G1 X168.645 Y202.052 E10.38199
G1 X167.968 Y202.081 E10.40452
G1 X167.643 Y202.09 E10.41534
G1 X166.82 Y202.1 E10.44271
G1 X68.051 Y202.099 E13.72778
G1 X67.346 Y202.089 E13.75123
G1 X67.043 Y202.08 E13.76132
G1 X66.168 Y202.043 E13.79044
G1 X65.178 Y201.986 E13.82343
G1 X64.466 Y201.935 E13.84717
G1 X63.557 Y201.832 E13.87759
G1 X62.732 Y201.702 E13.90537
G1 X61.724 Y201.53 E13.93938
G1 X61.038 Y201.403 E13.96259
G1 X60.131 Y201.195 E13.99354
G1 X59.333 Y200.975 E14.02107
G1 X58.422 Y200.712 E14.05261
G1 X57.702 Y200.494 E14.07763
G1 X56.822 Y200.186 E14.10864
G1 X56.069 Y199.885 E14.13561
G1 X55.145 Y199.501 E14.16889
G1 X54.466 Y199.208 E14.19349
G1 X53.655 Y198.818 E14.22342
G1 X52.902 Y198.416 E14.25181
G1 X52.129 Y197.989 E14.28118
G1 X51.371 Y197.555 E14.31023
G1 X50.612 Y197.077 E14.34006
G1 X49.95 Y196.62 E14.36682
G1 X49.072 Y195.996 E14.40265
G1 X48.51 Y195.583 E14.42584
G1 X47.817 Y195.029 E14.45535
G1 X47.178 Y194.473 E14.48352
G1 X46.463 Y193.831 E14.51548
G1 X45.898 Y193.311 E14.54102
G1 X45.257 Y192.671 E14.57115
G1 X44.737 Y192.104 E14.59674
G1 X44.01 Y191.289 E14.63306
G1 X43.542 Y190.748 E14.65686
G1 X42.979 Y190.041 E14.68692
G1 X42.501 Y189.384 E14.71394
G1 X41.919 Y188.562 E14.74744
G1 X41.495 Y187.945 E14.77234
G1 X41.006 Y187.165 E14.80296
G1 X40.617 Y186.48 E14.82916
G1 X40.112 Y185.565 E14.86392
G1 X39.788 Y184.959 E14.88677
G1 X39.388 Y184.128 E14.91745
G1 X39.059 Y183.363 E14.94515
G1 X38.689 Y182.466 E14.97742
G1 X38.414 Y181.778 E15.00206
G1 X38.098 Y180.876 E15.03385
G1 X37.85 Y180.052 E15.06247
G1 X37.586 Y179.128 E15.09443
G1 X37.383 Y178.377 E15.12031
G1 X37.182 Y177.491 E15.15053
G1 X37.065 Y176.853 E15.1721
G1 X36.873 Y175.715 E15.21048
G1 X36.767 Y175.032 E15.23347
G1 X36.665 Y174.136 E15.26347
G1 X36.605 Y173.281 E15.29197
G1 X36.548 Y172.246 E15.32645
G1 X36.519 Y171.571 E15.34892
G1 X36.51 Y171.245 E15.35977
G1 X36.5 Y170.42 E15.38721
G1 X36.501 Y118.649 E17.10912
G1 X36.511 Y117.951 E17.13234
G1 X36.56 Y117.059 E17.16205
G1 X36.614 Y116.496 E17.18086
G1 X36.653 Y116.146 E17.19258
G1 X36.725 Y115.585 E17.21139
G1 X36.884 Y114.66 E17.24261
G1 X37.203 Y113.5 E17.28262
G1 X37.371 Y112.997 E17.30026
G1 X37.482 Y112.679 E17.31146
G1 X37.685 Y112.128 E17.33099
G1 X38.047 Y111.263 E17.36218
G1 X38.494 Y110.408 E17.39427
G1 X38.659 Y110.13 E17.40502
G1 X39.017 Y109.546 E17.4278
G1 X40.3 Y107.506 E17.50796
G1 X41.567 Y105.358 E17.5909
G1 X42.79 Y103.148 E17.67491
G1 X43.947 Y100.907 E17.7588
G1 X45.044 Y98.625 E17.84301
G1 X46.054 Y96.361 E17.92546
G1 X47.032 Y93.996 E18.01058
G1 X47.935 Y91.628 E18.09488
G1 X48.741 Y89.309 E18.17653
G1 X49.516 Y86.865 E18.26181
G1 X50.203 Y84.463 E18.3449
G1 X50.824 Y82.035 E18.42826
G1 X51.38 Y79.575 E18.51214
G1 X51.863 Y77.114 E18.59556
G1 X52.28 Y74.618 E18.67973
G1 X52.627 Y72.11 E18.76394
G1 X52.899 Y69.616 E18.84738
G1 X53.1 Y67.128 E18.9304
G1 X53.233 Y64.616 E19.01407
G1 X53.3 Y61.087 E19.13146
G1 X53.301 Y44.409 E19.68617
G1 X53.311 Y43.744 E19.7083
G1 X53.365 Y42.807 E19.73951
G1 X53.499 Y41.879 E19.7707
G1 X53.711 Y40.965 E19.8019
G1 X54 Y40.073 E19.83309
G1 X54.365 Y39.209 E19.86429
G1 X54.801 Y38.379 E19.89547
G1 X55.307 Y37.589 E19.92667
G0 F6000 X55.703 Y37.722
G1 F1200 X56.272 Y36.999 E19.95727
G1 X56.902 Y36.327 E19.98791
G1 X57.588 Y35.713 E20.01853
G1 X58.324 Y35.161 E20.04913
G1 X59.106 Y34.674 E20.07977
G1 X59.927 Y34.258 E20.11038
G1 X60.781 Y33.914 E20.14101
G1 X61.661 Y33.645 E20.17161
G1 X62.562 Y33.454 E20.20224
G1 X63.476 Y33.342 E20.23287
G1 X64.012 Y33.313 E20.25073
G1 X64.332 Y33.304 E20.26137
G1 X64.63 Y33.3 E20.27128
G1 X169.993 Y33.3 E23.77567
G1 X170.843 Y33.311 E23.80395
G1 X171.762 Y33.364 E23.83456
G1 X172.673 Y33.497 E23.86518
G1 X173.569 Y33.708 E23.8958
G1 X174.443 Y33.996 E23.92641
G1 X175.29 Y34.359 E23.95706
G1 X176.101 Y34.794 E23.98767
G1 X176.871 Y35.298 E24.01827
G1 X177.595 Y35.867 E24.0489
G1 X178.267 Y36.497 E24.07954
G1 X178.882 Y37.182 E24.11016
G1 X179.435 Y37.918 E24.14078
G1 X179.922 Y38.699 E24.17139
G1 X180.339 Y39.52 E24.20202
G1 X180.684 Y40.374 E24.23265
G1 X180.953 Y41.254 E24.26326
G1 X181.145 Y42.155 E24.2939
G1 X181.258 Y43.068 E24.32449
G1 X181.287 Y43.612 E24.34261
G1 X181.296 Y43.932 E24.35326
G1 X181.3 Y44.23 E24.36317
G1 X181.3 Y61.111 E24.92464
G1 X181.337 Y63.736 E25.01195
G1 X181.444 Y66.244 E25.09545
G1 X181.622 Y68.764 E25.17947
G1 X181.871 Y71.279 E25.26353
G1 X182.19 Y73.768 E25.34699
G1 X182.591 Y76.32 E25.43291
G1 X183.043 Y78.751 E25.51515
G1 X183.579 Y81.243 E25.59993
G1 X184.181 Y83.7 E25.68407
G1 X184.854 Y86.145 E25.76842
G1 X185.589 Y88.545 E25.8519
G1 X186.403 Y90.959 E25.93663
G1 X187.27 Y93.309 E26.01994
G1 X188.229 Y95.697 E26.10553
G1 X189.22 Y97.974 E26.18813
G1 X190.312 Y100.303 E26.27368
G1 X191.437 Y102.538 E26.35691
G1 X192.644 Y104.773 E26.44139
G1 X193.886 Y106.926 E26.52406
G1 X195.64 Y109.751 E26.63466
G1 X196.039 Y110.405 E26.66014
G1 X196.484 Y111.211 E26.69076
G1 X196.759 Y111.813 E26.71277
G1 X196.791 Y111.889 E26.71552
G1 X196.975 Y112.356 E26.73221
G1 X197.134 Y112.79 E26.74758
G1 X197.241 Y113.095 E26.75833
G1 X197.425 Y113.649 E26.77775
G1 X197.677 Y114.534 E26.80835
G1 X197.88 Y115.651 E26.84611
G1 X197.947 Y116.177 E26.86375
G1 X197.982 Y116.487 E26.87413
G1 X198.042 Y117.102 E26.89468
G1 X198.091 Y117.996 E26.92446
G1 X198.1 Y118.76 E26.94987
G1 X198.099 Y170.543 E28.67218
G1 X198.089 Y171.248 E28.69563
G1 X198.081 Y171.541 E28.70538
G1 X198.043 Y172.41 E28.73431
G1 X197.987 Y173.389 E28.76693
G1 X197.937 Y174.091 E28.79033
G1 X197.839 Y174.963 E28.81952
G1 X197.708 Y175.801 E28.84773
G1 X197.538 Y176.799 E28.8814
G1 X197.413 Y177.476 E28.9043
G1 X197.213 Y178.348 E28.93405
G1 X196.993 Y179.149 E28.96168
G1 X196.737 Y180.034 E28.99232
G1 X196.498 Y180.819 E29.01962
G1 X196.202 Y181.663 E29.04936
G1 X195.913 Y182.384 E29.0752
G1 X195.527 Y183.311 E29.1086
G1 X195.219 Y184.022 E29.13437
G1 X194.835 Y184.816 E29.1637
G1 X194.476 Y185.484 E29.18893
G1 X194.042 Y186.271 E29.21882
G1 X193.623 Y187.005 E29.24693
G1 X193.144 Y187.766 E29.27684
G1 X192.702 Y188.405 E29.30268
G1 X192.18 Y189.142 E29.33272
G1 X191.671 Y189.838 E29.3614
G1 X191.14 Y190.504 E29.38973
G1 X190.58 Y191.149 E29.41814
G1 X189.941 Y191.862 E29.44998
G1 X189.414 Y192.434 E29.47585
G1 X188.801 Y193.047 E29.50468
G1 X188.238 Y193.565 E29.53013
G1 X187.443 Y194.274 E29.56556
G1 X186.896 Y194.748 E29.58963
G1 X186.206 Y195.297 E29.61896
G1 X185.554 Y195.772 E29.64579
G1 X184.771 Y196.326 E29.67769
G1 X184.135 Y196.764 E29.70338
G1 X183.38 Y197.238 E29.73303
G1 X182.687 Y197.633 E29.75956
G1 X181.758 Y198.145 E29.79484
G1 X181.134 Y198.477 E29.81835
G1 X180.348 Y198.854 E29.84734
G1 X179.61 Y199.171 E29.87406
G1 X178.715 Y199.541 E29.90627
G1 X178.029 Y199.815 E29.93084
G1 X177.167 Y200.117 E29.96122
G1 X176.341 Y200.366 E29.98991
G1 X175.445 Y200.622 E30.0209
G1 X174.744 Y200.813 E30.04507
G1 X174.23 Y200.94 E30.06268
G1 X173.83 Y201.021 E30.07625
G1 X173.035 Y201.167 E30.10314
G1 X172.054 Y201.332 E30.13622
G1 X171.371 Y201.438 E30.15921
G1 X170.507 Y201.536 E30.18813
G1 X169.827 Y201.585 E30.21081
G1 X168.628 Y201.652 E30.25075
G1 X167.951 Y201.681 E30.27329
G1 X167.638 Y201.69 E30.2837
G1 X166.82 Y201.7 E30.31091
G1 X68.057 Y201.699 E33.59578
G1 X67.352 Y201.689 E33.61923
G1 X67.059 Y201.681 E33.62898
G1 X66.19 Y201.643 E33.65791
G1 X65.207 Y201.587 E33.69066
G1 X64.495 Y201.536 E33.7144
G1 X63.618 Y201.436 E33.74376
G1 X62.799 Y201.308 E33.77133
G1 X61.796 Y201.137 E33.80517
G1 X61.11 Y201.01 E33.82838
G1 X60.237 Y200.81 E33.85816
G1 X59.444 Y200.591 E33.88553
G1 X58.538 Y200.329 E33.91689
G1 X57.818 Y200.111 E33.94192
G1 X56.97 Y199.815 E33.97179
G1 X56.222 Y199.516 E33.99858
G1 X55.303 Y199.134 E34.03168
G1 X54.624 Y198.841 E34.05628
G1 X53.843 Y198.465 E34.08511
G1 X53.24 Y198.144 E34.10783
G1 X52.169 Y197.552 E34.14853
G1 X51.57 Y197.208 E34.17151
G1 X50.839 Y196.748 E34.20023
G1 X50.182 Y196.294 E34.22679
G1 X49.309 Y195.674 E34.26241
G1 X48.747 Y195.261 E34.2856
G1 X48.079 Y194.727 E34.31405
G1 X47.445 Y194.175 E34.34201
G1 X46.734 Y193.536 E34.3738
G1 X46.169 Y193.016 E34.39934
G1 X45.551 Y192.399 E34.42839
G1 X45.035 Y191.837 E34.45376
G1 X44.312 Y191.027 E34.48988
G1 X43.844 Y190.486 E34.51367
G1 X43.302 Y189.805 E34.54262
G1 X42.827 Y189.153 E34.56945
G1 X42.339 Y188.465 E34.5975
G1 X41.825 Y187.718 E34.62766
G1 X41.354 Y186.967 E34.65714
G1 X40.967 Y186.287 E34.68317
G1 X40.465 Y185.377 E34.71773
G1 X40.141 Y184.771 E34.74059
G1 X39.755 Y183.969 E34.77019
G1 X39.429 Y183.21 E34.79767
G1 X39.06 Y182.317 E34.8298
G1 X38.785 Y181.629 E34.85445
G1 X38.481 Y180.76 E34.88507
G1 X38.234 Y179.941 E34.91352
G1 X37.972 Y179.024 E34.94524
G1 X37.769 Y178.273 E34.97112
G1 X37.576 Y177.419 E35.00024
G1 X37.433 Y176.634 E35.02677
G1 X37.268 Y175.654 E35.05983
G1 X37.162 Y174.971 E35.08282
G1 X37.064 Y174.107 E35.11174
G1 X37.015 Y173.427 E35.13441
G1 X36.948 Y172.229 E35.17432
G1 X36.919 Y171.554 E35.19679
G1 X36.91 Y171.239 E35.20727
G1 X36.9 Y170.42 E35.23452
G1 X36.901 Y118.655 E36.95623
G1 X36.911 Y117.957 E36.97944
G1 X36.958 Y117.097 E37.00809
G1 X37.012 Y116.534 E37.0269
G1 X37.05 Y116.197 E37.03818
G1 X37.122 Y115.636 E37.05699
G1 X37.279 Y114.728 E37.08764
G1 X37.582 Y113.627 E37.12562
G1 X37.75 Y113.124 E37.14326
G1 X37.858 Y112.818 E37.15405
G1 X38.061 Y112.267 E37.17359
G1 X38.416 Y111.417 E37.20422
G1 X38.84 Y110.608 E37.2346
G1 X39 Y110.338 E37.24504
G1 X39.356 Y109.759 E37.26765
G1 X40.625 Y107.741 E37.34693
G1 X41.928 Y105.532 E37.43223
G1 X43.145 Y103.333 E37.51583
G1 X44.291 Y101.113 E37.59892
G1 X45.412 Y98.783 E37.68492
G1 X46.431 Y96.498 E37.76814
G1 X47.392 Y94.174 E37.85178
G1 X48.317 Y91.746 E37.9382
G1 X49.128 Y89.413 E38.02035
G1 X49.886 Y87.023 E38.10374
G1 X50.589 Y84.567 E38.18871
G1 X51.215 Y82.117 E38.27281
G1 X51.776 Y79.635 E38.35745
G1 X52.257 Y77.185 E38.44049
G1 X52.678 Y74.667 E38.5254
G1 X53.023 Y72.172 E38.60918
G1 X53.297 Y69.659 E38.69326
G1 X53.5 Y67.145 E38.77714
G1 X53.632 Y64.645 E38.86041
G1 X53.7 Y61.095 E38.9785
G1 X53.701 Y44.415 E39.53328
G1 X53.711 Y43.75 E39.5554
G1 X53.765 Y42.831 E39.58602
G1 X53.898 Y41.92 E39.61664
G1 X54.11 Y41.024 E39.64727
G1 X54.399 Y40.149 E39.67792
G1 X54.763 Y39.304 E39.70852
G1 X55.198 Y38.493 E39.73913
G1 X55.703 Y37.722 E39.76978
G0 F6000 X56.098 Y37.858
G1 F1200 X56.666 Y37.156 E39.79982
G1 X57.293 Y36.506 E39.82985
G1 X57.975 Y35.914 E39.85989
G1 X58.707 Y35.385 E39.88993
G1 X59.483 Y34.923 E39.91997
G1 X60.297 Y34.532 E39.95
G1 X61.142 Y34.213 E39.98004
G1 X62.012 Y33.971 E40.01008
G1 X62.9 Y33.807 E40.04011
G1 X64.023 Y33.713 E40.0776
G1 X64.343 Y33.704 E40.08824
G1 X64.63 Y33.7 E40.09779
G1 X169.993 Y33.7 E43.60218
G1 X170.837 Y33.711 E43.63025
G1 X171.739 Y33.764 E43.6603
G1 X172.632 Y33.896 E43.69033
G1 X173.51 Y34.107 E43.72036
G1 X174.366 Y34.395 E43.7504
G1 X175.193 Y34.757 E43.78043
G1 X175.985 Y35.192 E43.81048
G1 X176.736 Y35.694 E43.84052
G1 X177.439 Y36.261 E43.87056
G1 X178.089 Y36.888 E43.9006
G1 X178.681 Y37.57 E43.93064
G1 X179.211 Y38.301 E43.96067
G1 X179.673 Y39.077 E43.99071
G1 X180.066 Y39.89 E44.02074
G1 X180.384 Y40.735 E44.05077
G1 X180.627 Y41.605 E44.08081
G1 X180.792 Y42.493 E44.11086
G1 X180.887 Y43.623 E44.14857
G1 X180.896 Y43.943 E44.15922
G1 X180.9 Y44.23 E44.16877
G1 X180.9 Y61.117 E44.73043
G1 X180.937 Y63.723 E44.81711
G1 X181.046 Y66.288 E44.9025
G1 X181.224 Y68.795 E44.9861
G1 X181.475 Y71.336 E45.07102
