;FLAVOR:Marlin
;TIME:5258
;Filament used: 3.32513m
;Layer height: 0.2
;MINX:59.593
;MINY:62.789
;MINZ:0.2
;MAXX:176.835
;MAXY:183.815
;MAXZ:15.8
;Generated with Cura_SteamEngine 4.9.1
M140 S50
M105
M190 S50
M104 S200
M105
M109 S200
M82 ;absolute extrusion mode
; Ender 3 Custom Start G-code
G92 E0 ; Reset Extruder
G28 ; Home all axes
G1 Z2.0 F3000 ; Move Z Axis up little to prevent scratching of Heat Bed
G1 X0.1 Y20 Z0.3 F5000.0 ; Move to start position
G1 X0.1 Y200.0 Z0.3 F1500.0 E15 ; Draw the first line
G1 X0.4 Y200.0 Z0.3 F5000.0 ; Move to side a little
G1 X0.4 Y20 Z0.3 F1500.0 E30 ; Draw the second line
G92 E0 ; Reset Extruder
G1 Z2.0 F3000 ; Move Z Axis up little to prevent scratching of Heat Bed
G1 X5 Y20 Z0.3 F5000.0 ; Move over to prevent blob squish
G92 E0
G92 E0
G1 F2700 E-5
;LAYER_COUNT:79
;LAYER:0
M107
G0 F6000 X69.24 Y106.682 Z0.2
;TYPE:SKIRT
G1 F2700 E0
G1 F1200 X70.068 Y106.24 E0.03122
G1 X70.93 Y105.871 E0.0624
G1 X71.821 Y105.577 E0.09361
G1 X72.71 Y105.364 E0.12402
G1 X74.248 Y105.064 E0.17613
G1 X74.417 Y105.033 E0.18185
G1 X76.838 Y104.521 E0.26415
G1 X79.304 Y103.925 E0.34853
G1 X81.721 Y103.269 E0.43183
G1 X84.1 Y102.549 E0.5145
G1 X86.556 Y101.731 E0.6006
G1 X88.854 Y100.892 E0.68197
G1 X91.242 Y99.942 E0.76745
G1 X93.549 Y98.949 E0.85098
G1 X95.809 Y97.899 E0.93387
G1 X98.08 Y96.765 E1.0183
G1 X100.299 Y95.577 E1.10201
G1 X102.478 Y94.33 E1.18551
G1 X104.615 Y93.025 E1.2688
G1 X106.728 Y91.652 E1.35261
G1 X108.822 Y90.204 E1.43728
G1 X110.835 Y88.728 E1.52031
G1 X112.815 Y87.188 E1.60374
G1 X114.767 Y85.578 E1.68789
G1 X116.662 Y83.922 E1.7716
G1 X118.495 Y82.229 E1.85459
G1 X120.296 Y80.469 E1.93834
G1 X122.075 Y78.628 E2.02349
G1 X123.753 Y76.788 E2.10632
G1 X125.403 Y74.874 E2.19037
G1 X126.986 Y72.932 E2.2737
G1 X128.507 Y70.95 E2.35679
G1 X130.417 Y68.294 E2.4656
G1 X130.956 Y67.517 E2.49706
G1 X131.522 Y66.77 E2.52823
G1 X132.151 Y66.073 E2.55945
G1 X132.836 Y65.433 E2.59063
G1 X133.574 Y64.854 E2.62183
G1 X134.358 Y64.339 E2.65303
G1 X135.183 Y63.893 E2.68422
G1 X136.043 Y63.519 E2.71542
G1 X136.932 Y63.22 E2.74661
G1 X137.843 Y62.998 E2.7778
G1 X138.77 Y62.853 E2.80901
G1 X139.705 Y62.789 E2.84018
G1 X140.643 Y62.804 E2.87138
G1 X141.576 Y62.899 E2.90257
G1 X142.508 Y63.076 E2.93412
G1 X143.05 Y63.204 E2.95265
G1 X148.029 Y64.456 E3.1234
G1 X148.714 Y64.637 E3.14697
G1 X149.61 Y64.915 E3.17817
G1 X150.479 Y65.268 E3.20937
G1 X151.314 Y65.694 E3.24055
G1 X152.11 Y66.19 E3.27174
G1 X152.861 Y66.752 E3.30294
G1 X153.562 Y67.375 E3.33413
G1 X154.207 Y68.056 E3.36533
G1 X154.791 Y68.79 E3.39652
G1 X155.311 Y69.57 E3.4277
G1 X155.763 Y70.393 E3.45893
G1 X156.142 Y71.25 E3.4901
G1 X156.448 Y72.137 E3.52131
G1 X156.676 Y73.046 E3.55248
G1 X156.82 Y73.912 E3.58168
G1 X156.878 Y74.389 E3.59766
G1 X157.098 Y76.402 E3.66501
G1 X157.446 Y78.923 E3.74965
G1 X157.858 Y81.389 E3.83281
G1 X158.343 Y83.861 E3.9166
G1 X158.888 Y86.277 E3.99897
G1 X159.519 Y88.748 E4.0838
G1 X160.212 Y91.171 E4.16762
G1 X160.978 Y93.589 E4.25198
G1 X161.792 Y95.927 E4.33432
G1 X162.701 Y98.317 E4.41937
G1 X163.654 Y100.624 E4.50239
G1 X164.681 Y102.923 E4.58613
G1 X165.772 Y105.193 E4.6699
G1 X166.925 Y107.426 E4.75349
G1 X168.144 Y109.634 E4.83738
G1 X169.43 Y111.814 E4.92156
G1 X170.768 Y113.94 E5.00511
G1 X172.151 Y116.006 E5.0878
G1 X174.042 Y118.648 E5.19586
G1 X174.672 Y119.494 E5.23094
G1 X175.199 Y120.269 E5.26211
G1 X175.658 Y121.087 E5.29331
G1 X176.046 Y121.941 E5.32451
G1 X176.359 Y122.825 E5.3557
G1 X176.596 Y123.732 E5.38688
G1 X176.755 Y124.657 E5.4181
G1 X176.835 Y125.591 E5.44928
G1 X176.835 Y126.529 E5.48047
G1 X176.755 Y127.463 E5.51165
G1 X176.595 Y128.388 E5.54288
G1 X176.358 Y129.295 E5.57406
G1 X176.044 Y130.179 E5.60526
G1 X175.656 Y131.033 E5.63646
G1 X175.196 Y131.85 E5.66764
G1 X174.669 Y132.626 E5.69884
G1 X173.89 Y133.559 E5.73927
G1 X173.242 Y134.254 E5.77087
G1 X173.093 Y134.411 E5.77807
G1 X169.922 Y137.679 E5.92952
G1 X169.387 Y138.215 E5.95471
G1 X168.697 Y138.85 E5.9859
G1 X167.955 Y139.424 E6.0171
G1 X167.167 Y139.932 E6.04828
G1 X166.339 Y140.372 E6.07947
G1 X165.476 Y140.739 E6.11066
G1 X164.585 Y141.032 E6.14186
G1 X163.719 Y141.238 E6.17146
G1 X162.18 Y141.539 E6.22362
G1 X162.018 Y141.568 E6.22909
G1 X159.601 Y142.08 E6.31127
G1 X157.136 Y142.674 E6.3956
G1 X154.708 Y143.334 E6.47929
G1 X152.296 Y144.063 E6.56309
G1 X149.903 Y144.861 E6.647
G1 X147.563 Y145.715 E6.72984
G1 X145.182 Y146.662 E6.81507
G1 X142.899 Y147.646 E6.89776
G1 X140.586 Y148.72 E6.98258
G1 X138.363 Y149.83 E7.06522
G1 X136.133 Y151.024 E7.14935
G1 X133.965 Y152.265 E7.23244
G1 X131.791 Y153.592 E7.31715
G1 X129.682 Y154.962 E7.4008
G1 X127.651 Y156.366 E7.48292
G1 X125.567 Y157.895 E7.56889
G1 X123.614 Y159.415 E7.6512
G1 X121.664 Y161.022 E7.73524
G1 X119.759 Y162.686 E7.81937
G1 X117.914 Y164.391 E7.90293
G1 X116.125 Y166.141 E7.98616
G1 X114.37 Y167.957 E8.07016
G1 X112.679 Y169.811 E8.15362
G1 X111.023 Y171.732 E8.23798
G1 X109.437 Y173.678 E8.32147
G1 X107.916 Y175.661 E8.4046
G1 X106.035 Y178.275 E8.51171
G1 X105.476 Y179.082 E8.54436
G1 X104.909 Y179.83 E8.57558
G1 X104.281 Y180.527 E8.60678
G1 X103.596 Y181.167 E8.63796
G1 X102.859 Y181.747 E8.66915
G1 X102.075 Y182.262 E8.70035
G1 X101.25 Y182.708 E8.73155
G1 X100.39 Y183.082 E8.76274
G1 X99.502 Y183.382 E8.79391
G1 X98.591 Y183.605 E8.82511
G1 X97.664 Y183.75 E8.85631
G1 X96.728 Y183.815 E8.88752
G1 X95.791 Y183.8 E8.91869
G1 X94.858 Y183.706 E8.94988
G1 X93.878 Y183.518 E8.98307
G1 X93.352 Y183.392 E9.00106
G1 X88.394 Y182.146 E9.17109
G1 X87.713 Y181.966 E9.19452
G1 X86.817 Y181.688 E9.22572
G1 X85.949 Y181.334 E9.2569
G1 X85.113 Y180.908 E9.28811
G1 X84.317 Y180.412 E9.3193
G1 X83.566 Y179.851 E9.35048
G1 X82.866 Y179.227 E9.38167
G1 X82.221 Y178.546 E9.41286
G1 X81.636 Y177.812 E9.44408
G1 X81.117 Y177.032 E9.47524
G1 X80.665 Y176.21 E9.50644
G1 X80.285 Y175.352 E9.53765
G1 X79.98 Y174.465 E9.56885
G1 X79.751 Y173.556 E9.60003
G1 X79.608 Y172.692 E9.62916
G1 X79.561 Y172.315 E9.64179
G1 X79.332 Y170.218 E9.71195
G1 X78.98 Y167.669 E9.79754
G1 X78.575 Y165.236 E9.87957
G1 X78.082 Y162.73 E9.96452
G1 X77.54 Y160.326 E10.04649
G1 X76.906 Y157.845 E10.13166
G1 X76.213 Y155.418 E10.21561
G1 X75.464 Y153.057 E10.29799
G1 X74.621 Y150.635 E10.38329
G1 X73.735 Y148.305 E10.4662
G1 X72.774 Y145.979 E10.5499
G1 X71.747 Y143.68 E10.63365
G1 X70.65 Y141.398 E10.71786
G1 X69.497 Y139.165 E10.80145
G1 X68.282 Y136.964 E10.88507
G1 X67.007 Y134.804 E10.96849
G1 X65.66 Y132.663 E11.05262
G1 X64.277 Y130.597 E11.13531
G1 X62.386 Y127.955 E11.24338
G1 X61.756 Y127.109 E11.27846
G1 X61.229 Y126.334 E11.30963
G1 X60.77 Y125.516 E11.34083
G1 X60.382 Y124.662 E11.37203
G1 X60.069 Y123.778 E11.40322
G1 X59.832 Y122.871 E11.4344
G1 X59.673 Y121.946 E11.46561
G1 X59.593 Y121.012 E11.49679
G1 X59.593 Y120.074 E11.52799
G1 X59.673 Y119.14 E11.55917
G1 X59.833 Y118.215 E11.59039
G1 X60.07 Y117.308 E11.62157
G1 X60.384 Y116.424 E11.65277
G1 X60.772 Y115.57 E11.68397
G1 X61.232 Y114.753 E11.71516
G1 X61.759 Y113.977 E11.74635
G1 X62.544 Y113.037 E11.78709
G1 X63.322 Y112.206 E11.82495
G1 X66.502 Y108.928 E11.97685
G1 X67.024 Y108.403 E12.00147
G1 X67.713 Y107.767 E12.03266
G1 X68.453 Y107.192 E12.06383
G1 X69.24 Y106.682 E12.09502
G0 F6000 X69.487 Y107.001
G1 F1200 X70.302 Y106.572 E12.12565
G1 X71.151 Y106.216 E12.15627
G1 X72.028 Y105.935 E12.1869
G1 X72.787 Y105.757 E12.21283
G1 X74.319 Y105.458 E12.26475
G1 X74.473 Y105.43 E12.26995
G1 X76.943 Y104.907 E12.35393
G1 X79.389 Y104.316 E12.43762
G1 X81.836 Y103.652 E12.52195
G1 X84.248 Y102.922 E12.60577
G1 X86.641 Y102.125 E12.68966
G1 X89.033 Y101.252 E12.77435
G1 X91.4 Y100.311 E12.85907
G1 X93.697 Y99.321 E12.94226
G1 X95.991 Y98.255 E13.0264
G1 X98.269 Y97.118 E13.11108
G1 X100.465 Y95.942 E13.19393
G1 X102.679 Y94.675 E13.27878
G1 X104.835 Y93.358 E13.3628
G1 X106.951 Y91.983 E13.44674
G1 X109.057 Y90.527 E13.53189
G1 X111.072 Y89.05 E13.61499
G1 X113.07 Y87.496 E13.69918
G1 X115.022 Y85.886 E13.78333
G1 X116.933 Y84.217 E13.86772
G1 X118.781 Y82.509 E13.95142
G1 X120.581 Y80.75 E14.03513
G1 X122.359 Y78.909 E14.12025
G1 X124.051 Y77.055 E14.20374
G1 X125.715 Y75.125 E14.28849
G1 X127.298 Y73.183 E14.37182
G1 X128.837 Y71.178 E14.45589
G1 X130.709 Y68.574 E14.56256
G1 X131.284 Y67.745 E14.59611
G1 X131.841 Y67.012 E14.62673
G1 X132.46 Y66.33 E14.65737
G1 X133.135 Y65.704 E14.68799
G1 X133.862 Y65.139 E14.71861
G1 X134.636 Y64.64 E14.74924
G1 X135.449 Y64.209 E14.77985
G1 X136.297 Y63.851 E14.81046
G1 X137.173 Y63.567 E14.84109
G1 X138.071 Y63.361 E14.87173
G1 X138.982 Y63.233 E14.90233
G1 X139.902 Y63.185 E14.93297
G1 X140.822 Y63.217 E14.96359
G1 X141.736 Y63.329 E14.99422
G1 X142.417 Y63.465 E15.01731
G1 X142.952 Y63.592 E15.0356
G1 X147.927 Y64.843 E15.20622
G1 X148.612 Y65.024 E15.22979
G1 X149.491 Y65.297 E15.2604
G1 X150.343 Y65.646 E15.29102
G1 X151.161 Y66.068 E15.32164
G1 X151.94 Y66.559 E15.35226
G1 X152.674 Y67.115 E15.38289
G1 X153.356 Y67.733 E15.4135
G1 X153.982 Y68.409 E15.44415
G1 X154.547 Y69.135 E15.47474
G1 X155.047 Y69.908 E15.50536
G1 X155.478 Y70.722 E15.536
G1 X155.837 Y71.57 E15.56663
G1 X156.12 Y72.446 E15.59724
G1 X156.327 Y73.343 E15.62786
G1 X156.423 Y73.961 E15.64866
G1 X156.48 Y74.432 E15.66444
G1 X156.703 Y76.468 E15.73257
G1 X157.049 Y78.972 E15.81664
G1 X157.458 Y81.426 E15.89939
G1 X157.954 Y83.954 E15.98507
G1 X158.504 Y86.392 E16.0682
G1 X159.13 Y88.842 E16.1523
G1 X159.834 Y91.306 E16.23754
G1 X160.581 Y93.661 E16.31971
G1 X161.432 Y96.107 E16.40585
G1 X162.317 Y98.434 E16.48865
G1 X163.291 Y100.791 E16.57348
G1 X164.313 Y103.081 E16.65688
G1 X165.428 Y105.399 E16.74243
G1 X166.57 Y107.611 E16.82523
G1 X167.807 Y109.852 E16.91037
G1 X169.08 Y112.009 E16.99367
G1 X170.414 Y114.129 E17.07698
G1 X171.831 Y116.247 E17.16174
G1 X173.71 Y118.87 E17.26906
G1 X174.351 Y119.732 E17.30478
G1 X174.867 Y120.494 E17.33539
G1 X175.316 Y121.298 E17.36602
G1 X175.693 Y122.138 E17.39664
G1 X175.997 Y123.007 E17.42727
G1 X176.223 Y123.9 E17.4579
G1 X176.371 Y124.808 E17.4885
G1 X176.44 Y125.726 E17.51912
G1 X176.429 Y126.647 E17.54976
G1 X176.338 Y127.563 E17.58037
G1 X176.167 Y128.468 E17.611
G1 X175.919 Y129.355 E17.64164
G1 X175.595 Y130.216 E17.67224
G1 X175.198 Y131.047 E17.70287
G1 X174.73 Y131.839 E17.73346
G1 X174.194 Y132.588 E17.7641
G1 X173.598 Y133.287 E17.79465
G1 X172.95 Y133.982 E17.82625
G1 X172.806 Y134.133 E17.83319
G1 X169.746 Y137.288 E17.97938
G1 X169.104 Y137.932 E18.00962
G1 X168.426 Y138.555 E18.04025
G1 X167.697 Y139.117 E18.07086
G1 X166.921 Y139.613 E18.1015
G1 X166.106 Y140.04 E18.1321
G1 X165.256 Y140.394 E18.16272
G1 X164.379 Y140.674 E18.19334
G1 X163.642 Y140.846 E18.21851
G1 X162.109 Y141.145 E18.27046
G1 X161.962 Y141.172 E18.27543
G1 X159.495 Y141.694 E18.3593
G1 X157.043 Y142.285 E18.44319
G1 X154.602 Y142.948 E18.52732
G1 X152.16 Y143.687 E18.61218
G1 X149.777 Y144.481 E18.69572
G1 X147.415 Y145.343 E18.77935
G1 X145.055 Y146.282 E18.86383
G1 X142.708 Y147.293 E18.94883
G1 X140.417 Y148.357 E19.03284
G1 X138.174 Y149.477 E19.11623
G1 X135.952 Y150.667 E19.20006
G1 X133.737 Y151.935 E19.28495
G1 X131.611 Y153.232 E19.36778
G1 X129.459 Y154.631 E19.45315
G1 X127.393 Y156.059 E19.53669
G1 X125.352 Y157.556 E19.62087
G1 X123.337 Y159.124 E19.70579
G1 X121.43 Y160.696 E19.78799
G1 X119.488 Y162.392 E19.87375
G1 X117.628 Y164.11 E19.95796
G1 X115.859 Y165.842 E20.04031
G1 X114.053 Y167.71 E20.12672
G1 X112.397 Y169.526 E20.20847
G1 X110.711 Y171.481 E20.29433
G1 X109.139 Y173.411 E20.37712
G1 X107.574 Y175.449 E20.46259
G1 X105.733 Y178.009 E20.56746
G1 X105.147 Y178.855 E20.60169
G1 X104.59 Y179.588 E20.63231
G1 X103.972 Y180.27 E20.66292
G1 X103.297 Y180.896 E20.69354
G1 X102.57 Y181.462 E20.72419
G1 X101.797 Y181.961 E20.75479
G1 X100.984 Y182.392 E20.78539
G1 X100.136 Y182.751 E20.81602
G1 X99.26 Y183.035 E20.84665
G1 X98.363 Y183.242 E20.87727
G1 X97.451 Y183.37 E20.9079
G1 X96.532 Y183.419 E20.93851
G1 X95.612 Y183.387 E20.96913
G1 X94.698 Y183.276 E20.99975
G1 X93.971 Y183.129 E21.02442
G1 X93.449 Y183.004 E21.04227
G1 X88.496 Y181.759 E21.21213
G1 X87.815 Y181.579 E21.23556
G1 X86.936 Y181.305 E21.26619
G1 X86.084 Y180.956 E21.29681
G1 X85.266 Y180.535 E21.32741
G1 X84.487 Y180.044 E21.35803
G1 X83.754 Y179.487 E21.38865
G1 X83.072 Y178.869 E21.41926
G1 X82.446 Y178.194 E21.44988
G1 X81.881 Y177.467 E21.48051
G1 X81.381 Y176.694 E21.51113
G1 X80.95 Y175.88 E21.54176
G1 X80.591 Y175.032 E21.57239
G1 X80.308 Y174.156 E21.60301
G1 X80.101 Y173.259 E21.63363
G1 X80.005 Y172.642 E21.6544
G1 X79.939 Y172.102 E21.67249
G1 X79.723 Y170.118 E21.73887
G1 X79.383 Y167.66 E21.8214
G1 X78.961 Y165.126 E21.90684
G1 X78.479 Y162.67 E21.99009
G1 X77.924 Y160.211 E22.07393
G1 X77.293 Y157.741 E22.15872
G1 X76.6 Y155.315 E22.24264
G1 X75.837 Y152.909 E22.32659
G1 X75.001 Y150.509 E22.41112
G1 X74.114 Y148.177 E22.4941
G1 X73.137 Y145.812 E22.57921
G1 X72.115 Y143.522 E22.66262
G1 X71 Y141.204 E22.74817
G1 X69.86 Y138.995 E22.83085
G1 X68.624 Y136.758 E22.91585
G1 X67.341 Y134.583 E22.99984
G1 X66.014 Y132.474 E23.08272
G1 X64.597 Y130.356 E23.16747
G1 X62.718 Y127.733 E23.27479
G1 X62.077 Y126.871 E23.31052
G1 X61.561 Y126.109 E23.34113
G1 X61.112 Y125.305 E23.37176
G1 X60.735 Y124.465 E23.40238
G1 X60.431 Y123.596 E23.433
G1 X60.205 Y122.703 E23.46364
G1 X60.057 Y121.795 E23.49424
G1 X59.988 Y120.877 E23.52485
G1 X59.999 Y119.956 E23.55549
G1 X60.09 Y119.04 E23.58611
G1 X60.261 Y118.135 E23.61674
G1 X60.509 Y117.248 E23.64737
G1 X60.833 Y116.387 E23.67797
G1 X61.23 Y115.556 E23.7086
G1 X61.698 Y114.764 E23.7392
G1 X62.234 Y114.015 E23.76983
G1 X62.836 Y113.31 E23.80067
G1 X63.473 Y112.628 E23.8317
G1 X63.609 Y112.485 E23.83827
G1 X66.785 Y109.21 E23.99
G1 X67.307 Y108.685 E24.01463
G1 X67.984 Y108.061 E24.04525
G1 X68.713 Y107.498 E24.07589
G1 X69.487 Y107.001 E24.10648
G0 F6000 X69.733 Y107.32
G1 F1200 X70.535 Y106.905 E24.13651
G1 X71.37 Y106.561 E24.16655
G1 X72.233 Y106.294 E24.1966
G1 X72.864 Y106.149 E24.21813
G1 X74.39 Y105.851 E24.26984
G1 X74.555 Y105.821 E24.27542
G1 X77.022 Y105.299 E24.35929
G1 X79.516 Y104.696 E24.44463
G1 X81.919 Y104.044 E24.52745
G1 X84.374 Y103.301 E24.61276
G1 X86.799 Y102.493 E24.69777
G1 X89.182 Y101.623 E24.78215
G1 X91.527 Y100.691 E24.86608
G1 X93.858 Y99.687 E24.95049
G1 X96.189 Y98.604 E25.03598
G1 X98.415 Y97.493 E25.11873
G1 X100.688 Y96.276 E25.20448
G1 X102.891 Y95.015 E25.28891
G1 X105.063 Y93.688 E25.37357
G1 X107.167 Y92.321 E25.45702
G1 X109.282 Y90.859 E25.54253
G1 X111.308 Y89.373 E25.6261
G1 X113.324 Y87.805 E25.71105
G1 X115.299 Y86.176 E25.7962
G1 X117.183 Y84.53 E25.87941
G1 X119.05 Y82.805 E25.96395
G1 X120.883 Y81.013 E26.04921
G1 X122.642 Y79.193 E26.1334
G1 X124.35 Y77.32 E26.2177
G1 X126.027 Y75.376 E26.3031
G1 X127.609 Y73.434 E26.38641
G1 X129.14 Y71.44 E26.47002
G1 X131.076 Y68.747 E26.58033
G1 X131.613 Y67.973 E26.61167
G1 X132.16 Y67.254 E26.64171
G1 X132.768 Y66.587 E26.67173
G1 X133.433 Y65.976 E26.70177
G1 X134.15 Y65.426 E26.73182
G1 X134.912 Y64.942 E26.76185
G1 X135.714 Y64.527 E26.79188
G1 X136.55 Y64.184 E26.82194
G1 X137.413 Y63.917 E26.85198
G1 X138.296 Y63.728 E26.88202
G1 X139.192 Y63.617 E26.91205
G1 X140.095 Y63.585 E26.9421
G1 X140.996 Y63.634 E26.97211
G1 X142.325 Y63.855 E27.01692
G1 X142.855 Y63.98 E27.03503
G1 X147.825 Y65.229 E27.20548
G1 X148.51 Y65.41 E27.22904
G1 X149.372 Y65.68 E27.25908
G1 X150.207 Y66.024 E27.28912
G1 X151.008 Y66.441 E27.31916
G1 X151.769 Y66.927 E27.34919
G1 X152.484 Y67.478 E27.37921
G1 X153.148 Y68.091 E27.40927
G1 X153.755 Y68.76 E27.43931
G1 X154.3 Y69.48 E27.46935
G1 X154.779 Y70.245 E27.49937
G1 X155.189 Y71.05 E27.52942
G1 X155.526 Y71.888 E27.55946
G1 X155.788 Y72.752 E27.58949
G1 X156.026 Y74.011 E27.6321
G1 X156.083 Y74.476 E27.64768
G1 X156.307 Y76.525 E27.71624
G1 X156.652 Y79.02 E27.80001
G1 X157.072 Y81.537 E27.88489
G1 X157.558 Y84.013 E27.96881
G1 X158.113 Y86.474 E28.05272
G1 X158.753 Y88.979 E28.13871
G1 X159.444 Y91.4 E28.22245
G1 X160.208 Y93.809 E28.30651
G1 X161.052 Y96.233 E28.39188
G1 X161.949 Y98.592 E28.47582
