;FLAVOR:Marlin
;TIME:18641
;Filament used: 14.6302m
;Layer height: 0.2
;MINX:36.5
;MINY:32.9
;MINZ:0.2
;MAXX:198.5
;MAXY:202.1
;MAXZ:3
;Generated with Cura_SteamEngine 4.9.1
M140 S50
M105
M190 S50
M104 S200
M105
M109 S200
M82 ;absolute extrusion mode
; Ender 3 Custom Start G-code
G92 E0 ; Reset Extruder
G28 ; Home all axes
G1 Z2.0 F3000 ; Move Z Axis up little to prevent scratching of Heat Bed
G1 X0.1 Y20 Z0.3 F5000.0 ; Move to start position
G1 X0.1 Y200.0 Z0.3 F1500.0 E15 ; Draw the first line
G1 X0.4 Y200.0 Z0.3 F5000.0 ; Move to side a little
G1 X0.4 Y20 Z0.3 F1500.0 E30 ; Draw the second line
G92 E0 ; Reset Extruder
G1 Z2.0 F3000 ; Move Z Axis up little to prevent scratching of Heat Bed
G1 X5 Y20 Z0.3 F5000.0 ; Move over to prevent blob squish
G92 E0
G92 E0
G1 F2700 E-5
;LAYER_COUNT:15
;LAYER:0
M107
G0 F6000 X40.711 Y38.122 Z0.2
;TYPE:SKIRT
G1 F2700 E0
G1 F1200 X41.078 Y37.744 E0.01752
G1 X41.315 Y37.506 E0.02869
G1 X41.734 Y37.1 E0.0481
G1 X42.435 Y36.477 E0.07929
G1 X43.387 Y35.782 E0.1185
G1 X43.857 Y35.476 E0.13715
G1 X44.12 Y35.31 E0.14749
G1 X44.586 Y35.025 E0.16566
G1 X45.406 Y34.57 E0.19685
G1 X46.17 Y34.224 E0.22475
G1 X46.638 Y34.042 E0.24145
G1 X47.072 Y33.884 E0.25681
G1 X47.356 Y33.784 E0.26682
G1 X47.911 Y33.599 E0.28628
G1 X48.813 Y33.341 E0.31749
G1 X49.997 Y33.123 E0.35753
G1 X50.522 Y33.056 E0.37513
G1 X50.843 Y33.02 E0.38587
G1 X51.456 Y32.96 E0.40636
G1 X52.389 Y32.909 E0.43744
G1 X53.16 Y32.9 E0.46308
G1 X181.793 Y32.9 E4.74143
G1 X182.649 Y32.911 E4.76991
G1 X183.541 Y32.96 E4.79962
G1 X184.104 Y33.014 E4.81843
G1 X184.454 Y33.053 E4.83015
G1 X185.015 Y33.125 E4.84896
G1 X185.94 Y33.284 E4.88017
G1 X187.1 Y33.603 E4.92019
G1 X187.603 Y33.771 E4.93783
G1 X187.897 Y33.873 E4.94818
G1 X188.441 Y34.072 E4.96744
G1 X189.307 Y34.432 E4.99864
G1 X190.179 Y34.886 E5.03133
G1 X190.454 Y35.049 E5.04197
G1 X190.82 Y35.272 E5.05622
G1 X191.082 Y35.437 E5.06652
G1 X191.597 Y35.771 E5.08694
G1 X192.362 Y36.314 E5.11814
G1 X192.926 Y36.784 E5.14256
G1 X193.315 Y37.145 E5.16021
G1 X193.669 Y37.49 E5.17665
G1 X193.864 Y37.685 E5.18582
G1 X194.269 Y38.1 E5.20511
G1 X194.895 Y38.799 E5.23632
G1 X195.622 Y39.792 E5.27725
G1 X195.924 Y40.257 E5.29569
G1 X196.095 Y40.528 E5.30635
G1 X196.386 Y41.006 E5.32496
G1 X196.839 Y41.827 E5.35615
G1 X197.123 Y42.445 E5.37877
G1 X197.153 Y42.516 E5.38133
G1 X197.347 Y43.01 E5.39899
G1 X197.508 Y43.449 E5.41454
G1 X197.62 Y43.769 E5.42581
G1 X197.804 Y44.323 E5.44523
G1 X198.062 Y45.225 E5.47643
G1 X198.277 Y46.4 E5.51616
G1 X198.344 Y46.926 E5.5338
G1 X198.38 Y47.248 E5.54458
G1 X198.44 Y47.863 E5.56513
G1 X198.491 Y48.791 E5.59604
G1 X198.5 Y49.56 E5.62162
G1 X198.499 Y170.549 E9.64573
G1 X198.489 Y171.254 E9.66918
G1 X198.48 Y171.557 E9.67926
G1 X198.443 Y172.432 E9.70839
G1 X198.397 Y173.252 E9.73571
G1 X198.336 Y174.119 E9.76461
G1 X198.234 Y175.025 E9.79494
G1 X198.102 Y175.868 E9.82332
G1 X197.931 Y176.871 E9.85716
G1 X197.806 Y177.548 E9.88006
G1 X197.599 Y178.453 E9.91094
G1 X197.378 Y179.259 E9.93873
G1 X197.12 Y180.151 E9.96962
G1 X196.881 Y180.936 E9.99691
G1 X196.574 Y181.811 E10.02775
G1 X196.282 Y182.538 E10.05381
G1 X195.894 Y183.47 E10.08739
G1 X195.586 Y184.181 E10.11316
G1 X195.187 Y185.005 E10.14361
G1 X194.826 Y185.677 E10.16898
G1 X194.308 Y186.615 E10.20462
G1 X193.971 Y187.204 E10.22719
G1 X193.473 Y187.994 E10.25825
G1 X193.029 Y188.636 E10.28421
G1 X192.507 Y189.373 E10.31425
G1 X191.993 Y190.075 E10.34319
G1 X191.443 Y190.766 E10.37256
G1 X191.001 Y191.277 E10.39503
G1 X190.342 Y192.015 E10.42794
G1 X189.708 Y192.705 E10.45911
G1 X189.072 Y193.341 E10.48902
G1 X188.504 Y193.863 E10.51468
G1 X187.705 Y194.576 E10.5503
G1 X187.158 Y195.05 E10.57437
G1 X186.442 Y195.62 E10.60481
G1 X185.785 Y196.098 E10.63183
G1 X184.998 Y196.655 E10.6639
G1 X184.362 Y197.093 E10.68959
G1 X183.579 Y197.586 E10.72036
G1 X183.017 Y197.907 E10.74189
G1 X181.946 Y198.498 E10.78257
G1 X181.322 Y198.83 E10.80608
G1 X180.506 Y199.222 E10.83619
G1 X179.763 Y199.541 E10.86309
G1 X178.863 Y199.912 E10.89546
G1 X178.177 Y200.186 E10.92003
G1 X177.283 Y200.499 E10.95154
G1 X176.452 Y200.75 E10.98041
G1 X175.55 Y201.008 E11.01161
G1 X174.849 Y201.199 E11.03578
G1 X174.317 Y201.33 E11.054
G1 X173.903 Y201.415 E11.06806
G1 X173.102 Y201.561 E11.09514
G1 X172.115 Y201.727 E11.12843
G1 X171.432 Y201.833 E11.15142
G1 X170.536 Y201.935 E11.18141
G1 X169.681 Y201.995 E11.20992
G1 X168.645 Y202.052 E11.24443
G1 X167.968 Y202.081 E11.26696
G1 X167.643 Y202.09 E11.27778
G1 X166.82 Y202.1 E11.30515
G1 X68.051 Y202.099 E14.59022
G1 X67.346 Y202.089 E14.61367
G1 X67.043 Y202.08 E14.62376
G1 X66.168 Y202.043 E14.65289
G1 X65.178 Y201.986 E14.68587
G1 X64.466 Y201.935 E14.70961
G1 X63.557 Y201.832 E14.74004
G1 X62.732 Y201.702 E14.76781
G1 X61.724 Y201.53 E14.80183
G1 X61.038 Y201.403 E14.82503
G1 X60.131 Y201.195 E14.85598
G1 X59.333 Y200.975 E14.88351
G1 X58.422 Y200.712 E14.91505
G1 X57.702 Y200.494 E14.94007
G1 X56.822 Y200.186 E14.97108
G1 X56.069 Y199.885 E14.99805
G1 X55.145 Y199.501 E15.03133
G1 X54.466 Y199.208 E15.05593
G1 X53.655 Y198.818 E15.08586
G1 X52.902 Y198.416 E15.11425
G1 X52.129 Y197.989 E15.14362
G1 X51.371 Y197.555 E15.17267
G1 X50.612 Y197.077 E15.20251
G1 X49.95 Y196.62 E15.22926
G1 X49.072 Y195.996 E15.26509
G1 X48.51 Y195.583 E15.28828
G1 X47.817 Y195.029 E15.31779
G1 X47.178 Y194.473 E15.34597
G1 X46.463 Y193.831 E15.37793
G1 X45.898 Y193.311 E15.40347
G1 X45.257 Y192.671 E15.43359
G1 X44.737 Y192.104 E15.45918
G1 X44.01 Y191.289 E15.49551
G1 X43.542 Y190.748 E15.5193
G1 X42.979 Y190.041 E15.54936
G1 X42.501 Y189.384 E15.57638
G1 X41.919 Y188.562 E15.60988
G1 X41.495 Y187.945 E15.63478
G1 X41.006 Y187.165 E15.6654
G1 X40.617 Y186.48 E15.6916
G1 X40.112 Y185.565 E15.72636
G1 X39.788 Y184.959 E15.74922
G1 X39.388 Y184.128 E15.77989
G1 X39.059 Y183.363 E15.80759
G1 X38.689 Y182.466 E15.83986
G1 X38.414 Y181.778 E15.8645
G1 X38.098 Y180.876 E15.89629
G1 X37.85 Y180.052 E15.92491
G1 X37.586 Y179.128 E15.95688
G1 X37.383 Y178.377 E15.98275
G1 X37.182 Y177.491 E16.01297
G1 X37.065 Y176.853 E16.03454
G1 X36.873 Y175.715 E16.07293
G1 X36.767 Y175.032 E16.09591
G1 X36.665 Y174.136 E16.12591
G1 X36.605 Y173.281 E16.15442
G1 X36.548 Y172.246 E16.18889
G1 X36.519 Y171.571 E16.21136
G1 X36.51 Y171.245 E16.22221
G1 X36.5 Y170.42 E16.24965
G1 X36.501 Y49.449 E20.27316
G1 X36.511 Y48.751 E20.29638
G1 X36.56 Y47.859 E20.32609
G1 X36.614 Y47.296 E20.34491
G1 X36.653 Y46.946 E20.35662
G1 X36.725 Y46.385 E20.37543
G1 X36.884 Y45.46 E20.40665
G1 X37.203 Y44.3 E20.44666
G1 X37.371 Y43.797 E20.4643
G1 X37.482 Y43.479 E20.4755
G1 X37.685 Y42.928 E20.49503
G1 X38.047 Y42.063 E20.52622
G1 X38.494 Y41.208 E20.55831
G1 X38.664 Y40.921 E20.5694
G1 X38.892 Y40.549 E20.58392
G1 X39.036 Y40.32 E20.59291
G1 X39.368 Y39.807 E20.61324
G1 X39.911 Y39.043 E20.64441
G1 X40.711 Y38.122 E20.68499
G0 F6000 X40.998 Y38.4
G1 F1200 X41.365 Y38.022 E20.70251
G1 X41.594 Y37.794 E20.71326
G1 X42.013 Y37.388 E20.73266
G1 X42.701 Y36.776 E20.76329
G1 X43.605 Y36.117 E20.8005
G1 X44.075 Y35.811 E20.81915
G1 X44.328 Y35.651 E20.82911
G1 X44.794 Y35.366 E20.84728
G1 X45.6 Y34.92 E20.87791
G1 X46.322 Y34.594 E20.90426
G1 X46.775 Y34.418 E20.92043
G1 X47.209 Y34.26 E20.93579
G1 X47.483 Y34.164 E20.94545
G1 X48.038 Y33.979 E20.9649
G1 X48.923 Y33.726 E20.99552
G1 X50.048 Y33.52 E21.03356
G1 X50.573 Y33.453 E21.05116
G1 X50.882 Y33.418 E21.0615
G1 X51.495 Y33.358 E21.08199
G1 X52.394 Y33.309 E21.11193
G1 X53.16 Y33.3 E21.13741
G1 X181.793 Y33.3 E25.41576
G1 X182.643 Y33.311 E25.44404
G1 X183.503 Y33.358 E25.47268
G1 X184.066 Y33.412 E25.4915
G1 X184.403 Y33.45 E25.50278
G1 X184.964 Y33.522 E25.52159
G1 X185.872 Y33.679 E25.55224
G1 X186.973 Y33.982 E25.59022
G1 X187.476 Y34.15 E25.60786
G1 X187.76 Y34.249 E25.61786
G1 X188.304 Y34.448 E25.63712
G1 X189.154 Y34.802 E25.66775
G1 X189.978 Y35.233 E25.69868
G1 X190.246 Y35.391 E25.70903
G1 X190.612 Y35.614 E25.72328
G1 X190.865 Y35.773 E25.73322
G1 X191.38 Y36.107 E25.75364
G1 X192.13 Y36.641 E25.78426
G1 X192.661 Y37.084 E25.80726
G1 X193.036 Y37.432 E25.82427
G1 X193.39 Y37.777 E25.84071
G1 X193.578 Y37.965 E25.84956
G1 X193.983 Y38.38 E25.86884
G1 X194.597 Y39.066 E25.89946
G1 X195.287 Y40.009 E25.93833
G1 X195.589 Y40.474 E25.95677
G1 X195.753 Y40.736 E25.96705
G1 X196.044 Y41.214 E25.98566
G1 X196.488 Y42.02 E26.01627
G1 X196.754 Y42.6 E26.03749
G1 X196.784 Y42.671 E26.04006
G1 X196.972 Y43.147 E26.05708
G1 X197.133 Y43.586 E26.07263
G1 X197.241 Y43.895 E26.08352
G1 X197.425 Y44.449 E26.10293
G1 X197.677 Y45.334 E26.13354
G1 X197.88 Y46.451 E26.1713
G1 X197.947 Y46.977 E26.18893
G1 X197.982 Y47.287 E26.19931
G1 X198.042 Y47.902 E26.21986
G1 X198.091 Y48.796 E26.24964
G1 X198.1 Y49.56 E26.27505
G1 X198.099 Y170.543 E30.29897
G1 X198.089 Y171.248 E30.32242
G1 X198.081 Y171.541 E30.33216
G1 X198.043 Y172.41 E30.3611
G1 X197.987 Y173.389 E30.39371
G1 X197.937 Y174.091 E30.41712
G1 X197.839 Y174.963 E30.4463
G1 X197.708 Y175.801 E30.47451
G1 X197.538 Y176.799 E30.50819
G1 X197.413 Y177.476 E30.53108
G1 X197.213 Y178.348 E30.56084
G1 X196.993 Y179.149 E30.58847
G1 X196.737 Y180.034 E30.61911
G1 X196.498 Y180.819 E30.6464
G1 X196.202 Y181.663 E30.67615
G1 X195.913 Y182.384 E30.70198
G1 X195.527 Y183.311 E30.73538
G1 X195.219 Y184.022 E30.76115
G1 X194.835 Y184.816 E30.79049
G1 X194.476 Y185.484 E30.81571
G1 X194.042 Y186.271 E30.8456
G1 X193.623 Y187.005 E30.87372
G1 X193.144 Y187.766 E30.90362
G1 X192.702 Y188.405 E30.92946
G1 X192.18 Y189.142 E30.9595
G1 X191.671 Y189.838 E30.98818
G1 X191.14 Y190.504 E31.01651
G1 X190.58 Y191.149 E31.04492
G1 X189.941 Y191.862 E31.07677
G1 X189.414 Y192.434 E31.10264
G1 X188.801 Y193.047 E31.13147
G1 X188.238 Y193.565 E31.15691
G1 X187.443 Y194.274 E31.19234
G1 X186.896 Y194.748 E31.21642
G1 X186.206 Y195.297 E31.24575
G1 X185.554 Y195.772 E31.27258
G1 X184.771 Y196.326 E31.30448
G1 X184.135 Y196.764 E31.33016
G1 X183.38 Y197.238 E31.35981
G1 X182.687 Y197.633 E31.38634
G1 X181.758 Y198.145 E31.42162
G1 X181.134 Y198.477 E31.44513
G1 X180.348 Y198.854 E31.47413
G1 X179.61 Y199.171 E31.50084
G1 X178.715 Y199.541 E31.53305
G1 X178.029 Y199.815 E31.55762
G1 X177.167 Y200.117 E31.588
G1 X176.341 Y200.366 E31.61669
G1 X175.445 Y200.622 E31.64769
G1 X174.744 Y200.813 E31.67185
G1 X174.23 Y200.94 E31.68946
G1 X173.83 Y201.021 E31.70304
G1 X173.035 Y201.167 E31.72992
G1 X172.054 Y201.332 E31.76301
G1 X171.371 Y201.438 E31.786
G1 X170.507 Y201.536 E31.81492
G1 X169.827 Y201.585 E31.83759
G1 X168.628 Y201.652 E31.87753
G1 X167.951 Y201.681 E31.90007
G1 X167.638 Y201.69 E31.91049
G1 X166.82 Y201.7 E31.9377
G1 X68.057 Y201.699 E35.22257
G1 X67.352 Y201.689 E35.24602
G1 X67.059 Y201.681 E35.25577
G1 X66.19 Y201.643 E35.2847
G1 X65.207 Y201.587 E35.31744
G1 X64.495 Y201.536 E35.34119
G1 X63.618 Y201.436 E35.37054
G1 X62.799 Y201.308 E35.39811
G1 X61.796 Y201.137 E35.43196
G1 X61.11 Y201.01 E35.45516
G1 X60.237 Y200.81 E35.48495
G1 X59.444 Y200.591 E35.51231
G1 X58.538 Y200.329 E35.54368
G1 X57.818 Y200.111 E35.5687
G1 X56.97 Y199.815 E35.59857
G1 X56.222 Y199.516 E35.62537
G1 X55.303 Y199.134 E35.65847
G1 X54.624 Y198.841 E35.68306
G1 X53.843 Y198.465 E35.71189
G1 X53.24 Y198.144 E35.73461
G1 X52.169 Y197.552 E35.77532
G1 X51.57 Y197.208 E35.79829
G1 X50.839 Y196.748 E35.82702
G1 X50.182 Y196.294 E35.85358
G1 X49.309 Y195.674 E35.88919
G1 X48.747 Y195.261 E35.91239
G1 X48.079 Y194.727 E35.94083
G1 X47.445 Y194.175 E35.96879
G1 X46.734 Y193.536 E36.00059
G1 X46.169 Y193.016 E36.02613
G1 X45.551 Y192.399 E36.05517
G1 X45.035 Y191.837 E36.08055
G1 X44.312 Y191.027 E36.11666
G1 X43.844 Y190.486 E36.14045
G1 X43.302 Y189.805 E36.1694
G1 X42.827 Y189.153 E36.19623
G1 X42.339 Y188.465 E36.22429
G1 X41.825 Y187.718 E36.25444
G1 X41.354 Y186.967 E36.28393
G1 X40.967 Y186.287 E36.30995
G1 X40.465 Y185.377 E36.34452
G1 X40.141 Y184.771 E36.36737
G1 X39.755 Y183.969 E36.39698
G1 X39.429 Y183.21 E36.42445
G1 X39.06 Y182.317 E36.45659
G1 X38.785 Y181.629 E36.48123
G1 X38.481 Y180.76 E36.51185
G1 X38.234 Y179.941 E36.54031
G1 X37.972 Y179.024 E36.57203
G1 X37.769 Y178.273 E36.5979
G1 X37.576 Y177.419 E36.62702
G1 X37.433 Y176.634 E36.65356
G1 X37.268 Y175.654 E36.68661
G1 X37.162 Y174.971 E36.7096
G1 X37.064 Y174.107 E36.73852
G1 X37.015 Y173.427 E36.7612
G1 X36.948 Y172.229 E36.80111
G1 X36.919 Y171.554 E36.82358
G1 X36.91 Y171.239 E36.83406
G1 X36.9 Y170.42 E36.8613
G1 X36.901 Y49.455 E40.88461
G1 X36.911 Y48.757 E40.90783
G1 X36.958 Y47.897 E40.93648
G1 X37.012 Y47.334 E40.95529
G1 X37.05 Y46.997 E40.96657
G1 X37.122 Y46.436 E40.98538
G1 X37.279 Y45.528 E41.01603
G1 X37.582 Y44.427 E41.05401
G1 X37.75 Y43.924 E41.07165
G1 X37.858 Y43.618 E41.08244
G1 X38.061 Y43.067 E41.10197
G1 X38.416 Y42.217 E41.13261
G1 X38.84 Y41.408 E41.16299
G1 X39.005 Y41.13 E41.17374
G1 X39.233 Y40.758 E41.18825
G1 X39.372 Y40.538 E41.19691
G1 X39.704 Y40.025 E41.21723
G1 X40.237 Y39.274 E41.24786
G1 X40.998 Y38.4 E41.28641
G0 F6000 X41.285 Y38.679
G1 F1200 X41.652 Y38.301 E41.30393
G1 X41.872 Y38.081 E41.31428
G1 X42.291 Y37.675 E41.33368
G1 X42.967 Y37.076 E41.36372
G1 X43.824 Y36.452 E41.39898
G1 X44.294 Y36.146 E41.41764
G1 X44.537 Y35.992 E41.4272
G1 X45.003 Y35.707 E41.44537
G1 X45.794 Y35.271 E41.47541
G1 X46.473 Y34.964 E41.5002
G1 X46.912 Y34.793 E41.51587
G1 X47.346 Y34.635 E41.53123
G1 X47.609 Y34.543 E41.5405
G1 X48.164 Y34.358 E41.55995
G1 X49.033 Y34.111 E41.59
G1 X50.099 Y33.917 E41.62604
G1 X50.624 Y33.85 E41.64364
G1 X50.921 Y33.817 E41.65358
G1 X51.534 Y33.757 E41.67407
G1 X52.399 Y33.709 E41.70288
G1 X53.16 Y33.7 E41.72819
G1 X181.793 Y33.7 E46.00655
G1 X182.637 Y33.711 E46.03462
G1 X183.465 Y33.757 E46.0622
G1 X184.028 Y33.811 E46.08101
G1 X184.352 Y33.847 E46.09186
G1 X184.913 Y33.919 E46.11067
G1 X185.803 Y34.073 E46.14071
G1 X186.846 Y34.361 E46.1767
G1 X187.349 Y34.529 E46.19434
G1 X187.622 Y34.625 E46.20396
G1 X188.166 Y34.824 E46.22323
G1 X189 Y35.171 E46.25327
G1 X189.778 Y35.579 E46.28249
G1 X190.038 Y35.732 E46.29252
G1 X190.404 Y35.955 E46.30678
G1 X190.647 Y36.108 E46.31633
G1 X191.162 Y36.442 E46.33675
G1 X191.897 Y36.967 E46.36679
G1 X192.396 Y37.383 E46.3884
G1 X192.757 Y37.718 E46.40478
G1 X193.111 Y38.063 E46.42122
G1 X193.292 Y38.244 E46.42973
G1 X193.697 Y38.659 E46.44902
G1 X194.298 Y39.333 E46.47905
G1 X194.951 Y40.227 E46.51587
G1 X195.253 Y40.692 E46.53431
G1 X195.411 Y40.944 E46.54421
G1 X195.702 Y41.422 E46.56282
G1 X196.137 Y42.213 E46.59285
G1 X196.386 Y42.756 E46.61271
G1 X196.416 Y42.827 E46.61528
G1 X196.596 Y43.285 E46.63164
G1 X196.757 Y43.724 E46.6472
G1 X196.861 Y44.021 E46.65766
G1 X197.045 Y44.575 E46.67708
G1 X197.291 Y45.444 E46.70712
G1 X197.483 Y46.501 E46.74285
G1 X197.55 Y47.027 E46.76049
G1 X197.584 Y47.326 E46.77049
G1 X197.644 Y47.941 E46.79105
G1 X197.691 Y48.801 E46.81969
G1 X197.7 Y49.56 E46.84494
G1 X197.699 Y170.538 E50.86868
G1 X197.689 Y171.243 E50.89213
G1 X197.681 Y171.524 E50.90148
G1 X197.644 Y172.387 E50.93021
G1 X197.588 Y173.361 E50.96266
G1 X197.538 Y174.063 E50.98607
G1 X197.443 Y174.902 E51.01415
G1 X197.313 Y175.734 E51.04216
G1 X197.144 Y176.726 E51.07563
G1 X197.019 Y177.403 E51.09853
G1 X196.828 Y178.242 E51.12715
G1 X196.609 Y179.038 E51.15461
G1 X196.355 Y179.918 E51.18507
G1 X196.116 Y180.703 E51.21236
G1 X195.831 Y181.515 E51.24099
G1 X195.544 Y182.231 E51.26664
G1 X195.16 Y183.152 E51.29983
G1 X194.852 Y183.863 E51.3256
G1 X194.482 Y184.627 E51.35384
G1 X194.126 Y185.291 E51.37889
G1 X193.692 Y186.078 E51.40879
G1 X193.276 Y186.806 E51.43667
G1 X192.815 Y187.539 E51.46548
G1 X192.376 Y188.173 E51.49112
G1 X191.755 Y189.047 E51.52678
G1 X191.348 Y189.602 E51.54967
G1 X190.838 Y190.243 E51.57692
G1 X190.396 Y190.754 E51.59939
G1 X189.746 Y191.482 E51.63185
G1 X189.12 Y192.163 E51.66262
G1 X188.53 Y192.753 E51.69037
G1 X187.971 Y193.267 E51.71563
G1 X187.3 Y193.867 E51.74557
G1 X186.634 Y194.445 E51.7749
G1 X185.97 Y194.974 E51.80313
G1 X185.322 Y195.446 E51.8298
G1 X184.544 Y195.997 E51.8615
G1 X183.908 Y196.435 E51.88719
G1 X183.182 Y196.891 E51.9157
